X:89
T:Art O'Keefe's
T:Teehan's Favourite
R:slide
Z:id:hn-slide-89
M:6/8
L:1/8
K:Edor
efe B2A | GFE B2A | FED A2D | d2D A2B |
efe B2A | GFE B2A | FED F2A | F2E E3 :|
|: B2e ede | f2a afa | baf a2f | e2d B2A |
[1 B2e ede | f2a afa | baf a2f | e3 e2d :|
[2 fgf f2e | ded B2A | FED F2A | F2E E3 ||

